SVG_Azure_All/Cost Alert.svg

<?xml version="1.0" encoding="UTF-8" standalone="no"?>
<!-- Generated by Microsoft Visio, SVG Export Cost Alert.svg Page-1 -->

<svg
   xmlns:dc="http://purl.org/dc/elements/1.1/"
   xmlns:cc="http://creativecommons.org/ns#"
   xmlns:rdf="http://www.w3.org/1999/02/22-rdf-syntax-ns#"
   xmlns:svg="http://www.w3.org/2000/svg"
   xmlns="http://www.w3.org/2000/svg"
   xmlns:sodipodi="http://sodipodi.sourceforge.net/DTD/sodipodi-0.dtd"
   xmlns:inkscape="http://www.inkscape.org/namespaces/inkscape"
   width="0.78694648in"
   height="0.78708625in"
   viewBox="0 0 56.660203 56.670121"
   xml:space="preserve"
   class="st3"
   version="1.1"
   id="svg34"
   sodipodi:docname="Cost Alert.svg"
   style="font-size:12px;overflow:visible;color-interpolation-filters:sRGB;fill:none;fill-rule:evenodd;stroke-linecap:square;stroke-miterlimit:3"
   inkscape:version="0.92.5 (2060ec1f9f, 2020-04-08)"><metadata
   id="metadata40"><rdf:RDF><cc:Work
       rdf:about=""><dc:format>image/svg+xml</dc:format><dc:type
         rdf:resource="http://purl.org/dc/dcmitype/StillImage" /></cc:Work></rdf:RDF></metadata><defs
   id="defs38" /><sodipodi:namedview
   pagecolor="#ffffff"
   bordercolor="#666666"
   borderopacity="1"
   objecttolerance="10"
   gridtolerance="10"
   guidetolerance="10"
   inkscape:pageopacity="0"
   inkscape:pageshadow="2"
   inkscape:window-width="640"
   inkscape:window-height="480"
   id="namedview36"
   showgrid="false"
   inkscape:zoom="1.7196794"
   inkscape:cx="37.776495"
   inkscape:cy="23.268376"
   inkscape:window-x="0"
   inkscape:window-y="0"
   inkscape:window-maximized="0"
   inkscape:current-layer="svg34" />
	<style
   type="text/css"
   id="style2">
	<![CDATA[
		.st1 {fill:#57a300;stroke:none;stroke-linecap:butt;stroke-width:12.24}
		.st2 {fill:#ffffff;fill-opacity:0.9;stroke:none;stroke-linecap:butt;stroke-width:12.24}
		.st3 {fill:none;fill-rule:evenodd;font-size:12px;overflow:visible;stroke-linecap:square;stroke-miterlimit:3}
	]]>
	</style>

	<g
   id="g32"
   transform="translate(-12.24,-12.244163)">
		<title
   id="title4">Page-1</title>
		<g
   id="group6034-1"
   transform="translate(12.24,-34.0157)">
			<title
   id="title6">Cost Alert</title>
			<g
   id="group6035-2">
				<title
   id="title8">g12</title>
				<g
   id="shape6036-3">
					<title
   id="title10">path4</title>
					<path
   d="M 49.16,46.26 H 7.12 C 2.96,46.23 0,48.74 0,52.87 v 29.72 c 0,4.2 3.02,7.92 7.18,7.97 l 14.38,-0.1 13.61,12.47 V 90.46 l 13.87,0.16 c 4.15,0.03 7.56,-3.32 7.56,-7.47 l 0.06,-29.83 c 0.03,-4.13 -3.34,-7.06 -7.5,-7.06 z"
   class="st1"
   id="path12"
   inkscape:connector-curvature="0"
   style="fill:#57a300;stroke:none;stroke-width:12.23999977;stroke-linecap:butt" />
				</g>
				<g
   id="shape6037-5"
   transform="translate(25.541,-48.2116)">
					<title
   id="title15">circle6</title>
					<ellipse
   cx="2.7913001"
   cy="100.135"
   rx="2.7913001"
   ry="2.79158"
   class="st2"
   id="ellipse17"
   style="fill:#ffffff;fill-opacity:0.9;stroke:none;stroke-width:12.23999977;stroke-linecap:butt" />
				</g>
				<g
   id="shape6038-7"
   transform="translate(25.541,-14.2095)">
					<title
   id="title20">circle8</title>
					<ellipse
   cx="2.7913001"
   cy="100.135"
   rx="2.7913001"
   ry="2.79158"
   class="st2"
   id="ellipse22"
   style="fill:#ffffff;fill-opacity:0.9;stroke:none;stroke-width:12.23999977;stroke-linecap:butt" />
				</g>
				<g
   id="shape6039-9"
   transform="translate(18.8194,-21.52)">
					<title
   id="title25">path10</title>
					<path
   d="m 19.02,95.88 c 0,4.08 -4.05,7.05 -9.63,7.05 -4.9,0 -7.98,-1.85 -9.39,-5.66 l 4.79,-0.9 c 0.62,1.34 1.99,2.87 5,2.87 3.02,0 4.14,-1.81 4.14,-2.95 0,-2.38 -2.86,-3.2 -4.09,-3.44 -5.23,-1.04 -8.93,-2.24 -8.93,-8.22 0,-4.92 4.57,-6.67 8.48,-6.67 4.29,0 7.07,1.42 8.51,4.33 l -4.14,1.31 c -0.87,-1.48 -2.35,-2.26 -4.29,-2.26 -2.84,0 -3.59,1.96 -3.59,2.99 0,1.43 1.42,2.68 3.62,3.19 2.76,0.64 4.69,1.13 5.82,1.61 1.79,0.75 3.7,2.92 3.7,6.75 z"
   class="st2"
   id="path27"
   inkscape:connector-curvature="0"
   style="fill:#ffffff;fill-opacity:0.9;stroke:none;stroke-width:12.23999977;stroke-linecap:butt" />
				</g>
			</g>
		</g>
	</g>
</svg>

<?xml version="1.0" encoding="UTF-8" standalone="no"?>
<!DOCTYPE svg PUBLIC "-//W3C//DTD SVG 1.1//EN" "http://www.w3.org/Graphics/SVG/1.1/DTD/svg11.dtd">
<!-- Generated by Microsoft Visio, SVG Export Cost Alert.svg Page-1 -->
<svg xmlns="http://www.w3.org/2000/svg" xmlns:xlink="http://www.w3.org/1999/xlink" xmlns:ev="http://www.w3.org/2001/xml-events"
		width="1.12701in" height="1.42953in" viewBox="0 0 81.1448 102.926" xml:space="preserve" color-interpolation-filters="sRGB"
		class="st3">
	<style type="text/css">
	<![CDATA[
		.st1 {fill:#57a300;stroke:none;stroke-linecap:butt;stroke-width:12.24}
		.st2 {fill:#ffffff;fill-opacity:0.9;stroke:none;stroke-linecap:butt;stroke-width:12.24}
		.st3 {fill:none;fill-rule:evenodd;font-size:12px;overflow:visible;stroke-linecap:square;stroke-miterlimit:3}
	]]>
	</style>

	<g>
		<title>Page-1</title>
		<g id="group5915-1" transform="translate(12.24,-34.0157)">
			<title>Cost Alert</title>
			<g id="group5916-2">
				<title>g12</title>
				<g id="shape5917-3">
					<title>path4</title>
					<path d="M49.16 46.26 L7.12 46.26 C2.96 46.23 0 48.74 0 52.87 L0 82.59 C0 86.79 3.02 90.51 7.18 90.56 L21.56
								 90.46 L35.17 102.93 L35.17 90.46 L49.04 90.62 C53.19 90.65 56.6 87.3 56.6 83.15 L56.66 53.32 C56.69
								 49.19 53.32 46.26 49.16 46.26 Z" class="st1"/>
				</g>
				<g id="shape5918-5" transform="translate(25.541,-48.2116)">
					<title>circle6</title>
					<ellipse cx="2.7913" cy="100.135" rx="2.7913" ry="2.79158" class="st2"/>
				</g>
				<g id="shape5919-7" transform="translate(25.541,-14.2095)">
					<title>circle8</title>
					<ellipse cx="2.7913" cy="100.135" rx="2.7913" ry="2.79158" class="st2"/>
				</g>
				<g id="shape5920-9" transform="translate(18.8194,-21.52)">
					<title>path10</title>
					<path d="M19.02 95.88 C19.02 99.96 14.97 102.93 9.39 102.93 C4.49 102.93 1.41 101.08 0 97.27 L4.79 96.37 C5.41
								 97.71 6.78 99.24 9.79 99.24 C12.81 99.24 13.93 97.43 13.93 96.29 C13.93 93.91 11.07 93.09 9.84 92.85
								 C4.61 91.81 0.91 90.61 0.91 84.63 C0.91 79.71 5.48 77.96 9.39 77.96 C13.68 77.96 16.46 79.38 17.9
								 82.29 L13.76 83.6 C12.89 82.12 11.41 81.34 9.47 81.34 C6.63 81.34 5.88 83.3 5.88 84.33 C5.88 85.76
								 7.3 87.01 9.5 87.52 C12.26 88.16 14.19 88.65 15.32 89.13 C17.11 89.88 19.02 92.05 19.02 95.88 Z"
							class="st2"/>
				</g>
			</g>
		</g>
	</g>
</svg>
